X:3
T:Clapboard Hill
C:Roy Watrous, 1968
S:The Watrous Book, 1992
M:6/8
L:1/8
Q:1/8=270
K:D
%%MIDI program 72
%%MIDI transpose 8
%%MIDI ratio 3 1
A|ABA FAf|edB A2A|AFA faf|fed e2f|g2b gfe|fga f2d|
efe dcB|A3-A2::A|TF2A Tf2d|Bcd A2A|TF2A Tf2a|fed e2f|
g2b gfe|fga f2d|efe dcB|A3-A2::[K:A]c/d/|e>fe ecA|f2f fga|
e>fe ecA|FAc B2c|A2A cBA|d2e f2a|e>fe cBA|efg a2:|]

